dist/flags/m/BQ-SE.svg

<svg width="20" height="15" viewBox="0 0 20 15" fill="none" xmlns="http://www.w3.org/2000/svg">
<mask id="mask0" mask-type="alpha" maskUnits="userSpaceOnUse" x="0" y="0" width="20" height="15">
<rect width="20" height="15" fill="white"/>
</mask>
<g mask="url(#mask0)">
<path fill-rule="evenodd" clip-rule="evenodd" d="M0 0H20V15H0V0Z" fill="#00268D"/>
<path d="M0.625 0.625H19.375V14.375H0.625V0.625Z" fill="#00268D" stroke="#E31D1C" stroke-width="1.25"/>
<rect x="9.375" width="1.25" height="15" fill="#E31D1C"/>
<rect y="8.125" width="1.25" height="20" transform="rotate(-90 0 8.125)" fill="#E31D1C"/>
<path d="M10.2795 3.81598L10 3.67623L9.72049 3.81598L3.47049 6.94098L2.35246 7.5L3.47049 8.05902L9.72049 11.184L10 11.3238L10.2795 11.184L16.5295 8.05902L17.6475 7.5L16.5295 6.94098L10.2795 3.81598Z" fill="white" stroke="#E31D1C" stroke-width="1.25"/>
<mask id="mask1" mask-type="alpha" maskUnits="userSpaceOnUse" x="0" y="2" width="20" height="11">
<path d="M10.2795 3.81598L10 3.67623L9.72049 3.81598L3.47049 6.94098L2.35246 7.5L3.47049 8.05902L9.72049 11.184L10 11.3238L10.2795 11.184L16.5295 8.05902L17.6475 7.5L16.5295 6.94098L10.2795 3.81598Z" fill="white" stroke="white" stroke-width="1.25"/>
</mask>
<g mask="url(#mask1)">
<path d="M7.25552 10C7.42365 10 15.625 10 15.625 10L14.7401 9.04289C14.7401 9.04289 12.9705 7.15039 12.8566 7.06366C12.7428 6.97692 12.5546 6.93949 12.3405 7.21515C12.1264 7.49081 12.0037 7.06366 11.8254 7.06366C11.6472 7.06366 11.5718 7.06366 11.3132 7.41734C11.0546 7.77102 10.1233 9.04289 10.1233 9.04289H8.7547C8.7547 9.04289 8.52383 8.83396 8.39225 8.90851C8.26068 8.98306 7.51952 8.08393 7.25552 8.01676C6.99152 7.94958 6.81782 8.26048 6.81782 8.50788C6.81782 8.75529 6.6936 8.28118 6.44101 8.42035C6.18842 8.55951 6.26985 8.90851 6.26985 8.90851C6.26985 8.90851 7.08739 10 7.25552 10Z" fill="#059334"/>
<path fill-rule="evenodd" clip-rule="evenodd" d="M9.75318 7.03415L9.13564 7.5L9.36224 6.73048L8.75 6.25943H9.51276L9.75318 5.5L10.008 6.25943H10.75L10.1431 6.73048L10.3738 7.5L9.75318 7.03415Z" fill="#FEDA00"/>
</g>
</g>
</svg>

<svg width="20" height="15" fill="none" xmlns="http://www.w3.org/2000/svg">
  <mask id="a" maskUnits="userSpaceOnUse" x="0" y="0" width="20" height="15">
    <path fill="#fff" d="M0 0h20v15H0z"/>
  </mask>
  <g mask="url(#a)">
    <path fill-rule="evenodd" clip-rule="evenodd" d="M0 0h20v15H0V0z" fill="#00268D"/>
    <path d="M.625.625h18.75v13.75H.625V.625z" fill="#00268D" stroke="#E31D1C" stroke-width="1.25"/>
    <path fill="#E31D1C" d="M9.375 0h1.25v15h-1.25z"/>
    <path fill="#E31D1C" d="M0 8.125v-1.25h20v1.25z"/>
    <path d="M10.28 3.816l-.28-.14-.28.14-6.25 3.125-1.118.559 1.118.559 6.25 3.125.28.14.28-.14 6.25-3.125 1.117-.559-1.117-.559-6.25-3.125z" fill="#fff" stroke="#E31D1C" stroke-width="1.25"/>
    <mask id="b" maskUnits="userSpaceOnUse" x="0" y="2" width="20" height="11">
      <path d="M10.28 3.816l-.28-.14-.28.14-6.25 3.125-1.118.559 1.118.559 6.25 3.125.28.14.28-.14 6.25-3.125 1.117-.559-1.117-.559-6.25-3.125z" fill="#fff" stroke="#fff" stroke-width="1.25"/>
    </mask>
    <g mask="url(#b)">
      <path d="M7.256 10h8.369l-.885-.957s-1.77-1.893-1.883-1.98c-.114-.086-.302-.124-.516.152-.215.276-.337-.151-.516-.151-.178 0-.253 0-.512.353l-1.19 1.626H8.755s-.231-.209-.363-.134c-.131.074-.872-.825-1.136-.892-.264-.067-.438.243-.438.49 0 .248-.124-.226-.377-.087-.253.14-.171.489-.171.489S7.087 10 7.256 10z" fill="#059334"/>
      <path fill-rule="evenodd" clip-rule="evenodd" d="M9.753 7.034l-.617.466.226-.77-.612-.47h.763l.24-.76.255.76h.742l-.607.47.23.77-.62-.466z" fill="#FEDA00"/>
    </g>
  </g>
</svg>
